X:166
T:The Liverpool Judies (c)
M:3/4
L:1/4
Q:1/4=3D95
K:G
D|\
D G G|G G G|F A F|G2 A/B/|
c d e|d B G|A B G|F  D d |
G G G|G G G|F A F|G2 d/d/|
G G G|G G G|F A G|FD D/D/|
G2  D|A2  D|B A G|c2 c   |
B d G|c B A|D E F|G2    ||
